<?xml version="1.0" encoding="UTF-8"?>
<map version="1.10" tiledversion="1.11.2" orientation="orthogonal" renderorder="right-down" width="16" height="8" tilewidth="32" tileheight="32" infinite="0" nextlayerid="6" nextobjectid="1">
 <tileset firstgid="1" source="../tilesets/room01.tsx"/>
 <layer id="1" name="decor" width="16" height="8">
  <data encoding="csv">
0,0,0,0,0,0,0,0,0,0,0,0,0,0,0,0,
0,64,64,64,64,64,64,64,64,64,0,0,0,0,64,0,
0,64,64,64,64,64,64,64,64,64,64,64,64,64,64,0,
0,64,64,64,64,64,64,64,64,64,64,64,0,0,0,0,
0,64,24,26,26,26,26,26,26,26,28,64,0,0,0,0,
0,64,25,27,27,27,27,27,27,27,29,64,64,64,64,0,
0,64,64,64,64,64,64,64,64,64,64,64,64,64,64,0,
0,0,0,0,0,0,0,0,0,0,0,64,64,0,0,0
</data>
 </layer>
 <layer id="3" name="actions" width="16" height="8">
  <data encoding="csv">
0,0,0,0,0,0,0,0,0,0,0,0,0,0,0,0,
0,0,0,0,0,0,0,0,0,0,0,0,0,0,0,0,
0,0,0,0,0,0,0,0,0,0,0,0,0,0,0,0,
0,0,0,0,0,0,0,0,0,0,0,0,0,0,0,0,
0,0,0,0,0,0,0,0,0,0,0,0,0,0,0,0,
0,0,0,0,0,0,0,0,0,0,0,0,0,0,0,0,
0,0,0,0,0,0,0,0,0,0,0,0,0,0,0,0,
0,0,0,0,0,0,0,0,0,0,0,0,0,0,0,0
</data>
 </layer>
 <layer id="4" name="characters" width="16" height="8">
  <data encoding="csv">
0,0,0,0,0,0,0,0,0,0,0,0,0,0,0,0,
0,0,0,0,0,0,0,0,0,0,0,0,0,0,0,0,
0,0,0,0,0,0,0,0,0,0,0,0,0,0,0,0,
0,0,0,0,0,0,0,0,0,0,0,0,0,0,0,0,
0,0,0,0,0,0,0,0,0,0,0,0,0,0,0,0,
0,0,0,0,0,0,0,0,0,0,0,0,0,0,0,0,
0,0,0,0,0,0,0,0,0,0,0,0,0,0,0,0,
0,0,0,0,0,0,0,0,0,0,0,0,0,0,0,0
</data>
 </layer>
 <layer id="5" name="metadata" width="16" height="8">
  <data encoding="csv">
0,0,0,0,0,0,0,0,0,0,0,0,0,0,0,0,
0,0,0,0,0,0,0,0,0,0,0,0,0,0,0,0,
0,0,0,0,0,0,0,0,0,0,0,0,0,0,0,0,
0,0,0,0,0,0,0,0,0,0,0,0,0,0,0,0,
0,0,0,0,0,0,0,0,0,0,0,0,0,0,0,0,
0,0,0,0,0,0,0,0,0,0,0,0,0,0,0,0,
0,0,0,0,0,0,0,0,0,0,0,0,0,0,0,0,
0,0,0,0,0,0,0,0,0,0,0,0,0,0,0,0
</data>
 </layer>
 <layer id="2" name="colliders" width="16" height="8">
  <data encoding="csv">
10,6,6,6,6,6,6,6,6,6,38,15,16,38,6,9,
7,0,0,0,0,0,0,0,0,0,39,13,14,39,0,8,
7,0,0,0,0,0,0,0,0,0,0,0,0,0,0,8,
7,0,0,0,0,0,0,0,0,0,0,0,32,34,36,8,
7,0,0,0,0,0,0,0,0,0,0,0,33,35,37,8,
7,0,0,0,0,0,0,0,0,0,0,0,0,0,0,8,
7,0,0,0,0,0,0,0,0,0,0,0,0,0,0,8,
11,5,5,5,5,5,5,5,5,5,5,0,0,5,5,12
</data>
 </layer>
</map>
