<?xml version="1.0" encoding="UTF-8"?>
<map version="1.10" tiledversion="1.11.2" orientation="orthogonal" renderorder="right-down" width="16" height="12" tilewidth="32" tileheight="32" infinite="0" nextlayerid="6" nextobjectid="1">
 <tileset firstgid="1" source="../tilesets/tavern01.tsx"/>
 <layer id="1" name="decor" width="16" height="12">
  <data encoding="csv">
0,0,0,0,0,0,0,0,0,0,0,0,0,0,0,0,
0,0,11,0,0,0,0,0,0,0,0,0,0,0,0,0,
0,60,21,21,16,18,18,18,18,18,18,51,21,59,0,0,
0,19,19,0,0,0,0,0,0,0,0,0,0,19,19,0,
0,20,20,53,42,58,42,58,42,58,42,58,44,20,0,0,
0,21,0,21,21,21,21,21,21,60,21,21,21,21,27,0,
0,19,25,20,0,0,20,0,0,20,0,0,59,19,19,0,
0,20,20,59,20,20,20,20,20,20,20,20,29,33,37,0,
0,21,21,0,21,0,0,21,21,0,0,21,30,34,38,0,
0,19,19,27,19,46,48,19,19,46,48,19,31,35,39,0,
0,20,20,20,20,20,20,20,20,20,60,20,32,36,40,0,
0,0,0,0,0,0,0,21,21,0,0,0,0,0,0,0
</data>
 </layer>
 <layer id="2" name="colliders" width="16" height="12">
  <data encoding="csv">
6,12,10,12,14,17,17,17,17,17,17,49,12,12,12,7,
6,8,0,13,15,17,17,17,17,17,17,50,9,13,9,7,
6,0,0,0,0,0,0,0,0,0,0,0,0,0,28,7,
4,0,0,52,41,57,41,57,41,57,41,57,43,0,0,5,
6,0,0,0,0,0,0,0,0,0,0,0,0,0,26,7,
6,0,24,0,0,0,0,0,0,0,0,0,0,0,0,7,
4,0,0,0,22,23,0,22,23,0,22,23,0,0,0,5,
6,0,0,0,0,0,0,0,0,0,0,0,0,0,0,7,
6,0,0,26,0,45,47,0,0,45,47,0,0,0,0,7,
4,0,0,0,0,0,0,0,0,0,0,0,0,0,0,5,
6,0,0,0,0,0,0,0,0,0,0,0,0,0,0,7,
3,3,3,3,3,3,1,0,0,2,3,3,3,3,3,3
</data>
 </layer>
 <layer id="3" name="actions" width="16" height="12">
  <data encoding="csv">
0,0,0,0,0,0,0,0,0,0,0,0,0,0,0,0,
0,0,0,0,0,0,0,0,0,0,0,0,0,0,0,0,
0,0,0,0,0,0,0,0,0,0,0,0,0,0,0,0,
0,0,0,0,0,0,0,0,0,0,0,0,0,0,0,0,
0,0,0,0,0,0,0,0,0,0,0,0,0,0,0,0,
0,0,0,0,0,0,0,0,0,0,0,0,0,0,0,0,
0,0,0,0,0,0,0,0,0,0,0,0,0,0,0,0,
0,0,0,0,0,0,0,0,0,0,0,0,0,0,0,0,
0,0,0,0,0,0,0,0,0,0,0,0,0,0,0,0,
0,0,0,0,0,0,0,0,0,0,0,0,0,0,0,0,
0,0,0,0,0,0,0,0,0,0,0,0,0,0,0,0,
0,0,0,0,0,0,0,0,0,0,0,0,0,0,0,0
</data>
 </layer>
 <layer id="4" name="characters" width="16" height="12">
  <data encoding="csv">
0,0,0,0,0,0,0,0,0,0,0,0,0,0,0,0,
0,0,0,0,0,0,0,0,0,0,0,0,0,0,0,0,
0,0,0,0,0,0,0,0,0,0,0,0,0,0,0,0,
0,0,0,0,0,0,0,0,0,0,0,0,0,0,0,0,
0,0,0,0,0,0,0,0,0,0,0,0,0,0,0,0,
0,0,0,0,0,0,0,0,0,0,0,0,0,0,0,0,
0,0,0,0,0,0,0,0,0,0,0,0,0,0,0,0,
0,0,0,0,0,0,0,0,0,0,0,0,0,0,0,0,
0,0,0,0,0,0,0,0,0,0,0,0,0,0,0,0,
0,0,0,0,0,0,0,0,0,0,0,0,0,0,0,0,
0,0,0,0,0,0,0,0,0,0,0,0,0,0,0,0,
0,0,0,0,0,0,0,0,0,0,0,0,0,0,0,0
</data>
 </layer>
 <layer id="5" name="metadata" width="16" height="12">
  <data encoding="csv">
0,0,0,0,0,0,0,0,0,0,0,0,0,0,0,0,
0,0,0,0,0,0,0,0,0,0,0,0,0,0,0,0,
0,0,0,0,0,0,0,0,0,0,0,0,0,0,0,0,
0,0,0,0,0,0,0,0,0,0,0,0,0,0,0,0,
0,0,0,0,0,0,0,0,0,0,0,0,0,0,0,0,
0,0,0,0,0,0,0,0,0,0,0,0,0,0,0,0,
0,0,0,0,0,0,0,0,0,0,0,0,0,0,0,0,
0,0,0,0,0,0,0,0,0,0,0,0,0,0,0,0,
0,0,0,0,0,0,0,0,0,0,0,0,0,0,0,0,
0,0,0,0,0,0,0,0,0,0,0,0,0,0,0,0,
0,0,0,0,0,0,0,0,0,0,0,0,0,0,0,0,
0,0,0,0,0,0,0,0,0,0,0,0,0,0,0,0
</data>
 </layer>
</map>
